X: 13716
T: For Yann
R: reel
M: 4/4
K: Fmajor
|:FAce fcgf|ac'c'g c'c'ef|d2dc defc|=Bdag- g_Bcf|FAce fcgf|
ac'd'c'- c'fec|1 df'e'd' d'2ba-|acfa cefg:|2 dfec gfef|Bcfc c'agg||
|:F2fe- ee2c-|c4- cgba|cefc efaf|A^cfB cfgf|
[1 d2dc d/e/f gb|afff- ffec|=Bfag- gfef|Bcfg- gB A/B/A:|
[2 d6^c2|c8|B6- BB-|BB2c- cB c/d/f||

